!!!SOCIAL_FUNCTION:	songs of the sun dance
!!!PDT:	1918

Specific Region: Dakotas, Minnesota, Montana, Nebraska
!!!REG: Dakotas and Montana
!!!LING_GROUP: Siouan
!!!LANG: Tone
!!!OTL@ENG: Black Face-paint He Grants Me
!!!ONM: No. 27
**kern
*Imale
*clefF4
*k[f#c#]
*M2/4
*MM76
8f#
16f#
8.f#
=1
12f#
12f#
12e
4d
=2
16B
8.d
4d
=3
12d
12f#
12e
4d
=4
16B
8.d
4d
=5
16B
8.d
16B
8.A
=6
16F#
8.A
4A
=7
16d
8.B
4A
=8
16F#
8.A
[4F#
=9
8F#]
8F#
8G
8F#
=10
16D
8.D
8D
8D
=11
2D
=12||
*M3/4
16A
8.d
16d
8.d
16d
8.f#
=13||
*M2/4
(12f#
12e)
12e
8d
8d
=14
16B
8.d
8d
8d
=15
16B
8.d
8B
8A
=16
16F#
8.A
4A
=17
16d
8.B
4A
=18
16F#
8.A
[4F#
=19
8F#]
8F#
8G
8F#
=20
16D
8.D
8D
8D
=21
2D
==
*-
!!!CNT: Native American -- Sioux
!!!MRD: 1911/07//-1914///
!!!OCL: Frances Densmore
!!!YOR1: Teton Sioux Music, Bulletin 61,
!!!YOR2: Bureau of American Ethnology, Smithsonian Institution
!!!PPR: Government Printing Office
!!!PPP: Washington, D.C.
!!!PDT: 1918///
!!!ENC: Craig Stuart Sapp
!!!END: 2002/03/25/
!!!EEV: 2002/03/31/
!!!AGN: Ceremonial Song/Song of the Sun Dance
!!!MPN@@SIO: Zintka'la-lu'ta
!!!MPN@ENG: Red Bird
!!!TXO: Teton Sioux
!!!MLC: Standing Rock Reservation, South Dakota, United States of America
!!!ARL: 45.9/-100.7#
!!!catalog: Catalogue No. 503
!!!PPG: 141
!!!EFL: 27/245
!!!VTS: 2118883281
